X: 6
T: The Curragh Races
R: reel
M: 4/4
L: 1/8
K: Ador
d|: eAcA eAcA | G3 B dGBd | eAcA eAcA | dBGA BAAd|
eAcA eAcA | G3 B dGBd | c3 A B3 c |[1 dBGA BAAd :|[2 dBGA BAAB||
c2 ec gcec | c2 ec dBGB | c2 ec gcec | dBGA BAAB |
c2 ec gcec | c2 ec dBGB | c2 cA B2 Bc |[1 dBGA BAAB :| [2 dBGA BAAd|]


Tune 1760	Setting 21642

